src/lib/packages/icons/src/assets/line/pizza-slice.svg

<svg width="24" height="24" viewBox="0 0 24 24" fill="none" xmlns="http://www.w3.org/2000/svg">
<path d="M20.9901 3.01C20.3101 2.33 19.3101 2.08 18.3901 2.37L4.29013 6.76C3.51013 7 2.87011 7.56001 2.52011 8.30001C2.17011 9.05001 2.15014 9.92001 2.48014 10.69C3.50014 13.11 4.96012 15.29 6.84012 17.17C8.72012 19.05 10.8901 20.51 13.3201 21.52C13.6901 21.67 14.0801 21.75 14.4701 21.75C14.8901 21.75 15.3201 21.66 15.7101 21.48C16.4501 21.14 17.0101 20.49 17.2501 19.71L21.6401 5.61001C21.9301 4.69001 21.6801 3.69 21.0001 3.01H20.9901ZM15.0701 20.11C14.7001 20.28 14.2801 20.29 13.9001 20.13C11.6601 19.19 9.64012 17.83 7.90012 16.1C6.16012 14.36 4.81012 12.35 3.87012 10.11C3.71012 9.73001 3.72014 9.3 3.89014 8.93C4.06014 8.57 4.36011 8.30001 4.74011 8.19001L5.01013 8.11001C5.83013 10.65 7.25012 12.97 9.15012 14.87C11.0501 16.77 13.3701 18.18 15.9101 19.01L15.8301 19.27C15.7101 19.65 15.4501 19.95 15.0801 20.12L15.0701 20.11ZM20.2001 5.16001L16.3401 17.56C14.0401 16.81 11.9201 15.52 10.2001 13.79C8.47014 12.07 7.19013 9.95 6.44013 7.65L18.8401 3.79C19.2401 3.67 19.6401 3.77001 19.9401 4.06001C20.2301 4.35001 20.3301 4.76001 20.2101 5.16001H20.2001ZM12.2701 8.99001C12.2701 9.68001 11.7101 10.24 11.0201 10.24C10.3301 10.24 9.77011 9.68001 9.77011 8.99001C9.77011 8.30001 10.3201 7.74001 11.0201 7.74001C11.7101 7.74001 12.2701 8.30001 12.2701 8.99001ZM16.0201 12.99C16.0201 13.54 15.5701 13.99 15.0201 13.99C14.4701 13.99 14.0201 13.54 14.0201 12.99C14.0201 12.44 14.4601 11.99 15.0201 11.99C15.5701 11.99 16.0201 12.44 16.0201 12.99ZM16.7701 7.99001C16.7701 8.40001 16.4401 8.74001 16.0201 8.74001C15.6001 8.74001 15.2701 8.40001 15.2701 7.99001C15.2701 7.58001 15.6001 7.24001 16.0201 7.24001C16.4401 7.24001 16.7701 7.58001 16.7701 7.99001Z" fill="currentColor"/>
</svg>

<svg xmlns="http://www.w3.org/2000/svg" width="24" height="24" fill="none"><path fill="currentColor" d="M20.99 3.01c-.68-.68-1.68-.93-2.6-.64L4.29 6.76c-.78.24-1.42.8-1.77 1.54-.35.75-.37 1.62-.04 2.39 1.02 2.42 2.48 4.6 4.36 6.48 1.88 1.88 4.05 3.34 6.48 4.35a2.98 2.98 0 0 0 2.39-.04c.74-.34 1.3-.99 1.54-1.77l4.39-14.1c.29-.92.04-1.92-.64-2.6h-.01Zm-5.92 17.1c-.37.17-.79.18-1.17.02-2.24-.94-4.26-2.3-6-4.03a18.603 18.603 0 0 1-4.03-5.99c-.16-.38-.15-.81.02-1.18.17-.36.47-.63.85-.74l.27-.08c.82 2.54 2.24 4.86 4.14 6.76 1.9 1.9 4.22 3.31 6.76 4.14l-.08.26c-.12.38-.38.68-.75.85l-.01-.01ZM20.2 5.16l-3.86 12.4a15.41 15.41 0 0 1-6.14-3.77 15.389 15.389 0 0 1-3.76-6.14l12.4-3.86a1.092 1.092 0 0 1 1.37 1.37h-.01Zm-7.93 3.83a1.25 1.25 0 1 1-2.5 0 1.25 1.25 0 0 1 2.5 0Zm3.75 4c0 .55-.45 1-1 1s-1-.45-1-1 .44-1 1-1c.55 0 1 .45 1 1Zm.75-5a.749.749 0 1 1-1.5 0 .749.749 0 1 1 1.5 0Z"/></svg>
